packages/ffe-icons/icons/filled/sm/specific_gravity.svg

<svg xmlns="http://www.w3.org/2000/svg" height="20" viewBox="0 -960 960 960" width="20"><path d="M315.155-116.001q-24.396 0-42.496-16.05t-21.811-40.027L170.925-808.23q-2-14.632 7.442-25.2 9.442-10.569 24.576-10.569h554.114q15.134 0 24.576 10.569 9.442 10.568 7.442 25.2l-79.923 636.152q-3.711 23.977-21.751 40.027-18.04 16.05-42.354 16.05H315.155Zm-73.001-545.998h135.077q18.846-22 45.567-35t57.4-13q30.68 0 57.202 13 26.523 13 45.369 35h134.839L734-792H226l16.154 130.001Zm238.133 168q33.944 0 57.829-24.172 23.885-24.173 23.885-58.116 0-33.944-24.172-57.829-24.172-23.885-58.116-23.885t-57.829 24.172q-23.885 24.173-23.885 58.116 0 33.944 24.172 57.829 24.172 23.885 58.116 23.885Z"/></svg>

<svg xmlns="http://www.w3.org/2000/svg" height="20" viewBox="0 -960 960 960" width="20"><path d="M315.15-116q-24.39 0-42.49-16.05t-21.81-40.03l-79.93-636.15q-2-14.63 7.45-25.2Q187.81-844 202.94-844h554.12q15.13 0 24.57 10.57 9.45 10.57 7.45 25.2l-79.93 636.15q-3.71 23.98-21.75 40.03T645.05-116h-329.9Zm-73-546h135.08q18.85-22 45.57-35t57.4-13q30.68 0 57.2 13 26.52 13 45.37 35h134.84L734-792H226l16.15 130Zm238.14 168q33.94 0 57.83-24.17Q562-542.34 562-576.29q0-33.94-24.17-57.83Q513.66-658 479.71-658q-33.94 0-57.83 24.17Q398-609.66 398-575.71q0 33.94 24.17 57.83Q446.34-494 480.29-494Z"/></svg>
